style-guide/assets/xd-icons-clock.svg

<svg viewBox="0 0 24 24" xmlns="http://www.w3.org/2000/svg" xmlns:xlink="http://www.w3.org/1999/xlink">
  <path d="M18 11h-5V6a1 1 0 1 0-2 0v6a1 1 0 0 0 1 1h6a1 1 0 1 0 0-2m-6 11C6.486 22 2 17.514 2 12S6.486 2 12 2s10 4.486 10 10-4.486 10-10 10m0-22C5.383 0 0 5.383 0 12s5.383 12 12 12 12-5.383 12-12S18.617 0 12 0"/>
</svg>

<?xml version="1.0" encoding="UTF-8"?>
<svg width="24px" height="24px" viewBox="0 0 24 24" version="1.1" xmlns="http://www.w3.org/2000/svg" xmlns:xlink="http://www.w3.org/1999/xlink">
    <!-- Generator: Sketch 51.3 (57544) - http://www.bohemiancoding.com/sketch -->
    <title>watch</title>
    <desc>Created with Sketch.</desc>
    <defs>
        <path d="M18,11 L13,11 L13,6 C13,5.447 12.553,5 12,5 C11.447,5 11,5.447 11,6 L11,12 C11,12.553 11.447,13 12,13 L18,13 C18.553,13 19,12.553 19,12 C19,11.447 18.553,11 18,11 M12,22 C6.486,22 2,17.514 2,12 C2,6.486 6.486,2 12,2 C17.514,2 22,6.486 22,12 C22,17.514 17.514,22 12,22 M12,0 C5.383,0 0,5.383 0,12 C0,18.617 5.383,24 12,24 C18.617,24 24,18.617 24,12 C24,5.383 18.617,0 12,0" id="path-1"></path>
    </defs>
    <g id="watch" stroke="none" stroke-width="1" fill="none" fill-rule="evenodd">
        <mask id="mask-2" fill="white">
            <use xlink:href="#path-1"></use>
        </mask>
        <use id="icons/24px/Watch" fill="#000000" xlink:href="#path-1"></use>
    </g>
</svg>
